X: 32
T:Mrs Hugh Lumsdens Strathspey, of Pitcaple
B:William Marshall's Scottish Airs, Melodies, Strathspeys, Reels &c (1822)
C:William Marshall
L:1/8
M:C
O:Scotland
R:Strathspey
Z:Clark Bernst + Richard Robinson
%%Page:60 - 2
F:http://richardrobinson.tunebook.org.uk/tune/3875
%%TBL:{"version":1,"type":"tune","id":"3875"}
K:A
%%staves {1 2}
V:1
B | \
(AB/c/) (B/A/)G/F/ (E/D/)C/B,/ (A,C) | E>G A<c BB,B,B | \
(AB/c/) (B/A/)G/F/ (E/D/)C/D/ (EA) | c>e f/g/a/f/ ec- c :|
c/d/ | \
ecAe a>baf | (f/e/)d/c/ (d/c/)B/A/ {AB}c<B- Bc/d/ | \
ecAe a>bac | dbBg aA- Ac/d/ |
ecAE CEA,c | !trill!B>c d/c/B/A/ BFFB | \
(AB/c/) (A>E) E>FAB |c>e f/g/a/f/ ec-c |]
V:2 middle=d clef=bass
L:1/4
z/| AAAA | AA[EB][EB] | AAAA | AdAA/ :| \
z/ | aaaa | aaee | aaaa | deaa | AAAA | GAdd | AAAA | AdAA/ |]

